public/svg/logos/ukko_fi.svg

<svg viewBox="0 0 136 33" fill="none" xmlns="http://www.w3.org/2000/svg">
  <path
    d="M122.4 6.32613C122.794 6.32613 123.549 6.39044 124.403 6.48859L125.454 1.16823C123.747 1.00577 122.172 0.873779 120.76 0.873779C116.361 0.873779 113.375 2.01772 112.524 6.42428L112.198 8.05559L109.932 8.44818L108.881 13.7381H111.079L107.303 32.8738H115.409L119.182 13.7415H122.988L124.138 7.96082H120.1C120.069 7.82883 120.1 7.70022 120.134 7.56823C120.365 6.32613 121.121 6.32613 122.4 6.32613Z"
    fill="#455DA7" />
  <path
    d="M131.438 20.1076L133.867 7.96082H125.631L123.267 19.9756C122.349 24.68 124.349 26.4095 128.451 26.4095C129.533 26.4095 131.666 26.2775 132.816 26.115L133.67 21.1839C132.03 21.0857 131.275 21.0214 131.438 20.1076Z"
    fill="#455DA7" />
  <path d="M135.18 1.26638H126.91L125.893 6.59012H134.163L135.18 1.26638Z" fill="#455DA7" />
  <path fill-rule="evenodd" clip-rule="evenodd"
    d="M98.5393 10.9628C98.5393 5.21603 95.0626 2.27832 88.6945 2.27832C79.275 2.27832 74.1247 9.62597 74.1213 17.9145C74.1213 23.6308 77.5673 26.5685 83.9354 26.5685C93.3209 26.5685 98.5393 19.2243 98.5393 10.9628ZM85.3812 19.2581C83.7075 19.2581 82.755 18.7369 82.755 16.7435C82.755 13.6399 83.6394 9.59212 87.2521 9.59212C88.9564 9.59212 89.9089 10.1133 89.9089 12.1711C89.9089 16.2527 88.1366 19.2581 85.3812 19.2581Z"
    fill="#455DA7" />
  <path
    d="M0.180176 19.0618C0.180176 24.284 3.75885 26.5719 9.36839 26.5719C15.8012 26.5719 20.9208 23.5022 22.2986 16.4185L24.9894 2.6709H16.587L13.8962 16.449C13.4675 18.5711 12.6477 19.2886 10.8107 19.2886C9.36839 19.2886 8.71185 18.8317 8.71185 17.6234C8.71185 17.2985 8.74587 16.9059 8.84452 16.449L11.5353 2.6709H3.13292L0.442113 16.4185C0.24481 17.3628 0.180176 18.2461 0.180176 19.0618Z"
    fill="#455DA7" />
  <path
    d="M28.0442 2.6709L23.4824 26.1793V26.1827H31.8474L33.7184 17.3662C33.7184 17.3662 34.7355 17.4305 35.392 17.4305C35.984 24.2874 39.2667 26.3451 43.8931 26.3451C44.6823 26.3451 45.5362 26.2808 46.4206 26.1827L47.2745 19.1938C44.1244 19.1938 42.4201 17.9855 42.2875 14.6552C47.6351 11.8123 49.0128 6.94885 49.1455 2.6709H40.7124C40.1886 8.48539 38.1849 10.736 34.7729 11.1286L36.4466 2.6709H28.0442Z"
    fill="#455DA7" />
  <path
    d="M48.3938 26.1793L52.9556 2.6709H61.358L59.6843 11.1286C63.0963 10.736 65.1 8.48539 65.6238 2.6709H74.0569C73.9242 6.94885 72.5465 11.8123 67.1989 14.6552C67.3315 17.9855 69.0358 19.1938 72.1859 19.1938L71.332 26.1827C70.4476 26.2808 69.5937 26.3451 68.8045 26.3451C64.1781 26.3451 60.8954 24.2874 60.3035 17.4305C59.6469 17.4305 58.6298 17.3662 58.6298 17.3662L56.7588 26.1827H48.3938V26.1793Z"
    fill="#455DA7" />
  <path d="M98.8351 19.8436H105.958L104.744 26.1793H97.6207L98.8351 19.8436Z" fill="#455DA7" />
</svg>

<svg viewBox="0 0 136 33" fill="none" xmlns="http://www.w3.org/2000/svg"><path d="M122.4 6.326c.394 0 1.149.064 2.003.163l1.051-5.32c-1.707-.163-3.282-.295-4.694-.295-4.399 0-7.385 1.144-8.236 5.55l-.326 1.632-2.266.392-1.051 5.29h2.198l-3.776 19.136h8.106l3.773-19.133h3.806l1.15-5.78H120.1c-.031-.132 0-.26.034-.393.231-1.242.987-1.242 2.266-1.242ZM131.438 20.108l2.429-12.147h-8.236l-2.364 12.015c-.918 4.704 1.082 6.434 5.184 6.434 1.082 0 3.215-.133 4.365-.295l.854-4.931c-1.64-.098-2.395-.163-2.232-1.076ZM135.18 1.266h-8.27l-1.017 5.324h8.27l1.017-5.324Z" fill="#455DA7"/><path fill-rule="evenodd" clip-rule="evenodd" d="M98.54 10.963c0-5.747-3.477-8.685-9.846-8.685-9.419 0-14.57 7.348-14.573 15.636 0 5.717 3.446 8.654 9.814 8.654 9.386 0 14.604-7.344 14.604-15.605ZM85.38 19.258c-1.674 0-2.626-.521-2.626-2.514 0-3.104.884-7.152 4.497-7.152 1.704 0 2.657.521 2.657 2.58 0 4.08-1.772 7.086-4.528 7.086Z" fill="#455DA7"/><path d="M.18 19.062c0 5.222 3.579 7.51 9.188 7.51 6.433 0 11.553-3.07 12.93-10.153L24.99 2.67h-8.402l-2.69 13.778c-.43 2.122-1.25 2.84-3.086 2.84-1.443 0-2.1-.457-2.1-1.666 0-.325.035-.717.134-1.174l2.69-13.778H3.133L.443 16.419a12.818 12.818 0 0 0-.263 2.643ZM28.044 2.67l-4.562 23.51v.003h8.365l1.871-8.817s1.017.064 1.674.064c.592 6.857 3.875 8.915 8.501 8.915.79 0 1.643-.064 2.528-.162l.854-6.99c-3.15 0-4.855-1.208-4.987-4.538 5.347-2.843 6.725-7.706 6.858-11.984h-8.434c-.523 5.814-2.527 8.065-5.94 8.458l1.675-8.458h-8.403ZM48.394 26.18l4.562-23.51h8.402l-1.674 8.459c3.412-.393 5.416-2.644 5.94-8.458h8.433c-.133 4.278-1.51 9.141-6.858 11.984.133 3.33 1.837 4.539 4.987 4.539l-.854 6.989a23.29 23.29 0 0 1-2.527.162c-4.627 0-7.91-2.058-8.502-8.915-.656 0-1.673-.064-1.673-.064l-1.871 8.817h-8.365v-.004ZM98.835 19.844h7.123l-1.214 6.335h-7.123l1.214-6.335Z" fill="#455DA7"/></svg>
